X: 1
T: Andy de Jarlis' Jig   v.3   [E]
C: trad.
O: Portland Collection
S: The Portland Collection v.2 p.14
S: Fiddle Hell handout 2021-4-14
R: jig
M: 6/8
L: 1/8
K: E
"A"[|] z |\
"E"EGB EGB | EGB "A"c2B | "E"EGB EGB | "D"=DFA B2A |\
"E"EGB EGB | EGB "A"c2a | "B"gfe Bcd | "E"efe e2 :|
"B"|: f |\
"E"g2g gfg | "A"aba c2e | "B"f3 f2e | dcB dcB |\
"E"g2g efg | "A"aba c2e | "B"f2e dcd | "E"efe e2 :|
